public/img/assets/icons/weather-conditions/thunder-night.svg

<svg width="120" height="120" viewBox="0 0 120 120" fill="none" xmlns="http://www.w3.org/2000/svg">
<path d="M82.9375 44.8C82.8496 44.8 82.7764 44.8294 82.7031 44.8294C82.8643 44.0656 82.9375 43.2725 82.9375 42.45C82.9375 35.9581 77.6934 30.7 71.2188 30.7C67.6152 30.7 64.4365 32.3597 62.2832 34.93C59.5586 29.6425 54.124 26 47.7813 26C38.7139 26 31.375 33.3584 31.375 42.45C31.375 43.5222 31.4922 44.5503 31.6826 45.5638C26.0723 47.4144 22 52.6578 22 58.9C22 66.6844 28.2988 73 36.0625 73H82.9375C90.7012 73 97 66.6844 97 58.9C97 51.1156 90.7012 44.8 82.9375 44.8Z" fill="#FF99FF"/>
<path d="M60.5 67.9683V53L47 79.0317H60.5V94L74 67.9683H60.5Z" fill="#D580FF"/>
<path fill-rule="evenodd" clip-rule="evenodd" d="M71.3906 73L74 67.9683H60.5V53L50.1281 73H71.3906Z" fill="#9966FF"/>
<path d="M45 88.127V79L37 94.873H45V104L53 88.127H45Z" fill="#D580FF"/>
<path d="M76 88.127V79L68 94.873H76V104L84 88.127H76Z" fill="#D580FF"/>
</svg>

<svg width="120" height="120" fill="none" xmlns="http://www.w3.org/2000/svg"><path d="M82.938 44.8c-.088 0-.162.03-.235.03.161-.764.234-1.557.234-2.38 0-6.492-5.244-11.75-11.718-11.75-3.604 0-6.782 1.66-8.936 4.23C59.56 29.642 54.124 26 47.781 26c-9.067 0-16.406 7.358-16.406 16.45 0 1.072.117 2.1.308 3.114C26.073 47.414 22 52.658 22 58.9 22 66.684 28.299 73 36.063 73h46.874C90.701 73 97 66.684 97 58.9s-6.299-14.1-14.063-14.1Z" fill="#F9F"/><path d="M60.5 67.968V53L47 79.032h13.5V94L74 67.968H60.5Z" fill="#D580FF"/><path fill-rule="evenodd" clip-rule="evenodd" d="M71.39 73 74 67.968H60.5V53L50.128 73h21.263Z" fill="#96F"/><path d="M45 88.127V79l-8 15.873h8V104l8-15.873h-8ZM76 88.127V79l-8 15.873h8V104l8-15.873h-8Z" fill="#D580FF"/></svg>
